assets/dude/That–Waylon.svg

<svg width="365" height="124" viewBox="0 0 365 124" fill="none" xmlns="http://www.w3.org/2000/svg">
<path d="M82.3014 12.7199H57.9414C56.9614 12.7199 56.6814 11.3199 56.6814 11.3199C55.0014 4.87988 48.9814 0.119873 41.9814 0.119873C34.9814 0.119873 28.9614 4.87988 27.2814 11.3199C27.2814 11.3199 27.0014 12.7199 26.0214 12.7199H1.66137C0.961367 12.7199 0.401367 13.2799 0.401367 13.9799V58.0799C0.401367 58.7799 0.961367 59.3399 1.66137 59.3399H9.22137C9.92137 59.3399 10.4814 58.7799 10.4814 58.0799V56.8199C10.4814 51.9199 14.4014 47.9999 19.3014 47.9999H35.6814C36.3814 47.9999 36.9414 48.5599 36.9414 49.2599V74.4599C36.9414 75.1599 36.3814 75.7199 35.6814 75.7199H21.8214C21.1214 75.7199 20.5614 76.2799 20.5614 76.9799V109.74C20.5614 110.44 21.1214 111 21.8214 111H26.0214C27.0014 111 27.2814 112.4 27.2814 112.4C28.9614 118.84 34.9814 123.6 41.9814 123.6C48.9814 123.6 55.0014 118.84 56.6814 112.4C56.6814 112.4 56.9614 111 57.9414 111H62.1414C62.8414 111 63.4014 110.44 63.4014 109.74V76.9799C63.4014 76.2799 62.8414 75.7199 62.1414 75.7199H48.2814C47.5814 75.7199 47.0214 75.1599 47.0214 74.4599V49.2599C47.0214 48.5599 47.5814 47.9999 48.2814 47.9999H64.6614C69.5614 47.9999 73.4814 51.9199 73.4814 56.8199V58.0799C73.4814 58.7799 74.0414 59.3399 74.7414 59.3399H82.3014C83.0014 59.3399 83.5614 58.7799 83.5614 58.0799V13.9799C83.5614 13.2799 83.0014 12.7199 82.3014 12.7199Z" fill="#FF1C31"/>
<path d="M90.7856 109.74C90.7856 110.44 91.3456 111 92.0456 111H96.2456C97.2256 111 97.5056 112.4 97.5056 112.4C99.1856 118.84 105.206 123.6 112.206 123.6C119.206 123.6 125.226 118.84 126.906 112.4C126.906 112.4 127.186 111 128.166 111H132.366C133.066 111 133.626 110.44 133.626 109.74V76.9799C133.626 76.2799 133.066 75.7199 132.366 75.7199H118.506C117.806 75.7199 117.246 75.1599 117.246 74.4599V66.8999C117.246 66.1999 117.806 65.6399 118.506 65.6399H158.826C159.526 65.6399 160.086 66.1999 160.086 66.8999V74.4599C160.086 75.1599 159.526 75.7199 158.826 75.7199H144.966C144.266 75.7199 143.706 76.2799 143.706 76.9799V109.74C143.706 110.02 143.846 110.3 143.986 110.58C144.266 110.86 144.546 111 144.966 111H149.166C150.146 111 150.426 112.4 150.426 112.4C152.106 118.84 158.126 123.6 165.126 123.6C172.126 123.6 178.146 118.84 179.826 112.4C179.826 112.4 180.106 111 181.086 111H185.286C185.706 111 185.986 110.86 186.266 110.58C186.406 110.3 186.546 110.02 186.546 109.74V76.9799C186.546 76.6999 186.406 76.2799 186.126 76.1399C185.986 75.8599 185.566 75.7199 185.286 75.7199H171.426C170.726 75.7199 170.166 75.1599 170.166 74.4599V49.2599C170.166 48.5599 170.726 47.9999 171.426 47.9999H185.286C185.986 47.9999 186.546 47.4399 186.546 46.7399V13.9799C186.546 13.2799 185.986 12.7199 185.286 12.7199H181.086C180.106 12.7199 179.826 11.3199 179.826 11.3199C178.146 4.87988 172.126 0.119873 165.126 0.119873C158.126 0.119873 152.106 4.87988 150.426 11.3199C150.426 11.3199 150.146 12.7199 149.166 12.7199H144.966C144.266 12.7199 143.706 13.2799 143.706 13.9799V46.7399C143.706 47.4399 144.266 47.9999 144.966 47.9999H158.826C159.526 47.9999 160.086 48.5599 160.086 49.2599V56.8199C160.086 57.5199 159.526 58.0799 158.826 58.0799H118.506C117.806 58.0799 117.246 57.5199 117.246 56.8199V49.2599C117.246 48.5599 117.806 47.9999 118.506 47.9999H132.366C133.066 47.9999 133.626 47.4399 133.626 46.7399V13.9799C133.626 13.2799 133.066 12.7199 132.366 12.7199H128.166C127.186 12.7199 126.906 11.3199 126.906 11.3199C125.226 4.87988 119.206 0.119873 112.206 0.119873C105.206 0.119873 99.1856 4.87988 97.5056 11.3199C97.5056 11.3199 97.2256 12.7199 96.2456 12.7199H92.0456C91.3456 12.7199 90.7856 13.2799 90.7856 13.9799V46.7399C90.7856 47.4399 91.3456 47.9999 92.0456 47.9999H105.906C106.606 47.9999 107.166 48.5599 107.166 49.2599V74.4599C107.166 75.1599 106.606 75.7199 105.906 75.7199H92.0456C91.3456 75.7199 90.7856 76.2799 90.7856 76.9799V109.74Z" fill="#FF1C31"/>
<path d="M248.458 59.8999H232.218C231.658 59.8999 231.378 59.6199 231.378 59.3399C231.378 58.9199 231.658 58.4999 231.658 58.4999L236.978 49.6799C237.678 48.5599 238.098 47.9999 238.798 47.9999H241.738C242.438 47.9999 242.858 48.5599 243.558 49.6799L249.018 58.4999C249.018 58.4999 249.298 58.9199 249.298 59.3399C249.298 59.6199 249.018 59.8999 248.458 59.8999ZM193.858 109.74C193.858 110.44 194.418 111 195.118 111H199.318C200.298 111 200.578 112.4 200.578 112.4C202.258 118.84 208.278 123.6 215.278 123.6C222.278 123.6 228.298 118.84 229.978 112.4C229.978 112.4 230.258 111 231.238 111H235.438C236.138 111 236.698 110.44 236.698 109.74V76.9799C236.698 76.2799 236.138 75.7199 235.438 75.7199H222.138C221.578 75.7199 221.158 75.7199 221.158 75.4399C221.158 75.0199 221.438 74.5999 221.438 74.5999L224.938 69.1399C225.638 68.0199 226.058 67.4599 226.758 67.4599H253.918C254.618 67.4599 255.038 68.0199 255.738 69.1399L259.098 74.3199C259.098 74.3199 259.378 74.7399 259.378 75.1599C259.378 75.4399 259.098 75.7199 258.538 75.7199H248.038C247.338 75.7199 246.778 76.2799 246.778 76.9799V110.16L247.058 110.58H247.198C247.338 110.86 247.618 111 248.038 111H252.238C253.218 111 253.498 112.4 253.498 112.4C255.178 118.84 261.198 123.6 268.198 123.6C275.198 123.6 281.218 118.84 282.898 112.4C282.898 112.4 283.178 111 284.158 111H288.358C289.058 111 289.618 110.44 289.618 109.74V76.9799C289.618 76.2799 289.058 75.7199 288.358 75.7199H276.598C275.898 75.7199 275.198 75.7199 274.498 74.5999L258.398 49.3999C258.398 49.3999 258.118 48.9799 258.118 48.5599C258.118 48.2799 258.398 47.9999 258.958 47.9999H261.898C262.598 47.9999 263.158 47.4399 263.158 46.7399V13.9799C263.158 13.2799 262.598 12.7199 261.898 12.7199H257.698C256.718 12.7199 256.438 11.3199 256.438 11.3199C254.758 4.87988 248.738 0.119873 241.738 0.119873C234.738 0.119873 228.718 4.87988 227.038 11.3199C227.038 11.3199 226.758 12.7199 225.778 12.7199H221.578C220.878 12.7199 220.318 13.2799 220.318 13.9799V46.7399C220.318 47.4399 220.878 47.9999 221.578 47.9999H226.198C226.758 47.9999 227.038 48.2799 227.038 48.5599C227.038 48.9799 226.758 49.3999 226.758 49.3999L211.078 74.0399C210.378 75.1599 209.958 75.7199 209.258 75.7199H195.118C194.418 75.7199 193.858 76.2799 193.858 76.9799V109.74Z" fill="#FF1C31"/>
<path d="M363.395 12.7199H339.035C338.055 12.7199 337.775 11.3199 337.775 11.3199C336.095 4.87988 330.075 0.119873 323.075 0.119873C316.075 0.119873 310.055 4.87988 308.375 11.3199C308.375 11.3199 308.095 12.7199 307.115 12.7199H282.755C282.055 12.7199 281.495 13.2799 281.495 13.9799V58.0799C281.495 58.7799 282.055 59.3399 282.755 59.3399H290.315C291.015 59.3399 291.575 58.7799 291.575 58.0799V56.8199C291.575 51.9199 295.495 47.9999 300.395 47.9999H316.775C317.475 47.9999 318.035 48.5599 318.035 49.2599V74.4599C318.035 75.1599 317.475 75.7199 316.775 75.7199H302.915C302.215 75.7199 301.655 76.2799 301.655 76.9799V109.74C301.655 110.44 302.215 111 302.915 111H307.115C308.095 111 308.375 112.4 308.375 112.4C310.055 118.84 316.075 123.6 323.075 123.6C330.075 123.6 336.095 118.84 337.775 112.4C337.775 112.4 338.055 111 339.035 111H343.235C343.935 111 344.495 110.44 344.495 109.74V76.9799C344.495 76.2799 343.935 75.7199 343.235 75.7199H329.375C328.675 75.7199 328.115 75.1599 328.115 74.4599V49.2599C328.115 48.5599 328.675 47.9999 329.375 47.9999H345.755C350.655 47.9999 354.575 51.9199 354.575 56.8199V58.0799C354.575 58.7799 355.135 59.3399 355.835 59.3399H363.395C364.095 59.3399 364.655 58.7799 364.655 58.0799V13.9799C364.655 13.2799 364.095 12.7199 363.395 12.7199Z" fill="#FF1C31"/>
</svg>

<svg xmlns="http://www.w3.org/2000/svg" fill="none" viewBox="0 0 365 124"><path fill="#FF1C31" d="M82.301 12.72h-24.36c-.98 0-1.26-1.4-1.26-1.4-1.68-6.44-7.7-11.2-14.7-11.2-7 0-13.02 4.76-14.7 11.2 0 0-.28 1.4-1.26 1.4H1.661c-.7 0-1.26.56-1.26 1.26v44.1c0 .7.56 1.26 1.26 1.26h7.56c.7 0 1.26-.56 1.26-1.26v-1.26c0-4.9 3.92-8.82 8.82-8.82h16.38c.7 0 1.26.56 1.26 1.26v25.2c0 .7-.56 1.26-1.26 1.26h-13.86c-.7 0-1.26.56-1.26 1.26v32.76c0 .7.56 1.26 1.26 1.26h4.2c.98 0 1.26 1.4 1.26 1.4 1.68 6.44 7.7 11.2 14.7 11.2 7 0 13.02-4.76 14.7-11.2 0 0 .28-1.4 1.26-1.4h4.2c.7 0 1.26-.56 1.26-1.26V76.98c0-.7-.56-1.26-1.26-1.26h-13.86c-.7 0-1.26-.56-1.26-1.26v-25.2c0-.7.56-1.26 1.26-1.26h16.38c4.9 0 8.82 3.92 8.82 8.82v1.26c0 .7.56 1.26 1.26 1.26h7.56c.7 0 1.26-.56 1.26-1.26v-44.1c0-.7-.56-1.26-1.26-1.26zM90.786 109.74c0 .7.56 1.26 1.26 1.26h4.2c.98 0 1.26 1.4 1.26 1.4 1.68 6.44 7.7 11.2 14.7 11.2 7 0 13.02-4.76 14.7-11.2 0 0 .28-1.4 1.26-1.4h4.2c.7 0 1.26-.56 1.26-1.26V76.98c0-.7-.56-1.26-1.26-1.26h-13.86c-.7 0-1.26-.56-1.26-1.26V66.9c0-.7.56-1.26 1.26-1.26h40.32c.7 0 1.26.56 1.26 1.26v7.56c0 .7-.56 1.26-1.26 1.26h-13.86c-.7 0-1.26.56-1.26 1.26v32.76c0 .28.14.56.28.84.28.28.56.42.98.42h4.2c.98 0 1.26 1.4 1.26 1.4 1.68 6.44 7.7 11.2 14.7 11.2 7 0 13.02-4.76 14.7-11.2 0 0 .28-1.4 1.26-1.4h4.2c.42 0 .7-.14.98-.42.14-.28.28-.56.28-.84V76.98c0-.28-.14-.7-.42-.84-.14-.28-.56-.42-.84-.42h-13.86c-.7 0-1.26-.56-1.26-1.26v-25.2c0-.7.56-1.26 1.26-1.26h13.86c.7 0 1.26-.56 1.26-1.26V13.98c0-.7-.56-1.26-1.26-1.26h-4.2c-.98 0-1.26-1.4-1.26-1.4-1.68-6.44-7.7-11.2-14.7-11.2-7 0-13.02 4.76-14.7 11.2 0 0-.28 1.4-1.26 1.4h-4.2c-.7 0-1.26.56-1.26 1.26v32.76c0 .7.56 1.26 1.26 1.26h13.86c.7 0 1.26.56 1.26 1.26v7.56c0 .7-.56 1.26-1.26 1.26h-40.32c-.7 0-1.26-.56-1.26-1.26v-7.56c0-.7.56-1.26 1.26-1.26h13.86c.7 0 1.26-.56 1.26-1.26V13.98c0-.7-.56-1.26-1.26-1.26h-4.2c-.98 0-1.26-1.4-1.26-1.4-1.68-6.44-7.7-11.2-14.7-11.2-7 0-13.02 4.76-14.7 11.2 0 0-.28 1.4-1.26 1.4h-4.2c-.7 0-1.26.56-1.26 1.26v32.76c0 .7.56 1.26 1.26 1.26h13.86c.7 0 1.26.56 1.26 1.26v25.2c0 .7-.56 1.26-1.26 1.26h-13.86c-.7 0-1.26.56-1.26 1.26v32.76zM248.458 59.9h-16.24c-.56 0-.84-.28-.84-.56 0-.42.28-.84.28-.84l5.32-8.82c.7-1.12 1.12-1.68 1.82-1.68h2.94c.7 0 1.12.56 1.82 1.68l5.46 8.82s.28.42.28.84c0 .28-.28.56-.84.56zm-54.6 49.84c0 .7.56 1.26 1.26 1.26h4.2c.98 0 1.26 1.4 1.26 1.4 1.68 6.44 7.7 11.2 14.7 11.2 7 0 13.02-4.76 14.7-11.2 0 0 .28-1.4 1.26-1.4h4.2c.7 0 1.26-.56 1.26-1.26V76.98c0-.7-.56-1.26-1.26-1.26h-13.3c-.56 0-.98 0-.98-.28 0-.42.28-.84.28-.84l3.5-5.46c.7-1.12 1.12-1.68 1.82-1.68h27.16c.7 0 1.12.56 1.82 1.68l3.36 5.18s.28.42.28.84c0 .28-.28.56-.84.56h-10.5c-.7 0-1.26.56-1.26 1.26v33.18l.28.42h.14c.14.28.42.42.84.42h4.2c.98 0 1.26 1.4 1.26 1.4 1.68 6.44 7.7 11.2 14.7 11.2 7 0 13.02-4.76 14.7-11.2 0 0 .28-1.4 1.26-1.4h4.2c.7 0 1.26-.56 1.26-1.26V76.98c0-.7-.56-1.26-1.26-1.26h-11.76c-.7 0-1.4 0-2.1-1.12l-16.1-25.2s-.28-.42-.28-.84c0-.28.28-.56.84-.56h2.94c.7 0 1.26-.56 1.26-1.26V13.98c0-.7-.56-1.26-1.26-1.26h-4.2c-.98 0-1.26-1.4-1.26-1.4-1.68-6.44-7.7-11.2-14.7-11.2-7 0-13.02 4.76-14.7 11.2 0 0-.28 1.4-1.26 1.4h-4.2c-.7 0-1.26.56-1.26 1.26v32.76c0 .7.56 1.26 1.26 1.26h4.62c.56 0 .84.28.84.56 0 .42-.28.84-.28.84l-15.68 24.64c-.7 1.12-1.12 1.68-1.82 1.68h-14.14c-.7 0-1.26.56-1.26 1.26v32.76z"/><path fill="#FF1C31" d="M363.395 12.72h-24.36c-.98 0-1.26-1.4-1.26-1.4-1.68-6.44-7.7-11.2-14.7-11.2-7 0-13.02 4.76-14.7 11.2 0 0-.28 1.4-1.26 1.4h-24.36c-.7 0-1.26.56-1.26 1.26v44.1c0 .7.56 1.26 1.26 1.26h7.56c.7 0 1.26-.56 1.26-1.26v-1.26c0-4.9 3.92-8.82 8.82-8.82h16.38c.7 0 1.26.56 1.26 1.26v25.2c0 .7-.56 1.26-1.26 1.26h-13.86c-.7 0-1.26.56-1.26 1.26v32.76c0 .7.56 1.26 1.26 1.26h4.2c.98 0 1.26 1.4 1.26 1.4 1.68 6.44 7.7 11.2 14.7 11.2 7 0 13.02-4.76 14.7-11.2 0 0 .28-1.4 1.26-1.4h4.2c.7 0 1.26-.56 1.26-1.26V76.98c0-.7-.56-1.26-1.26-1.26h-13.86c-.7 0-1.26-.56-1.26-1.26v-25.2c0-.7.56-1.26 1.26-1.26h16.38c4.9 0 8.82 3.92 8.82 8.82v1.26c0 .7.56 1.26 1.26 1.26h7.56c.7 0 1.26-.56 1.26-1.26v-44.1c0-.7-.56-1.26-1.26-1.26z"/></svg>
